X:62
T:B062-  Chestnut
Q:1/4=120
L:1/4
M:C|
K:Am
Aedc|BA/2B/2^GE|ABcB/2c/2|dc/d/2e2::ee/2f/2gf/2e/2|\
dd/2e/2fe/2d/2|cc/2d/2ed/2c/2|d3/2c/2c2|eeed/2c/2|dddc/2B/2|\
cAAe|B3/2A/2A2:|]

